optimized/24/solid/video-camera-slash.svg

<svg xmlns="http://www.w3.org/2000/svg" viewBox="0 0 24 24">
  <path d="M3.53033 2.46967C3.23744 2.17678 2.76256 2.17678 2.46967 2.46967C2.17678 2.76256 2.17678 3.23744 2.46967 3.53033L20.4697 21.5303C20.7626 21.8232 21.2374 21.8232 21.5303 21.5303C21.8232 21.2374 21.8232 20.7626 21.5303 20.4697L3.53033 2.46967Z"/>
  <path d="M22.5 17.6893C22.5 18.1614 22.2984 18.5502 21.996 18.814L17.25 14.068V7.93931L19.9393 5.24996C20.8843 4.30501 22.5 4.97427 22.5 6.31063V17.6893Z"/>
  <path d="M15.75 7.5V12.568L7.68198 4.5H12.75C14.4069 4.5 15.75 5.84315 15.75 7.5Z"/>
  <path d="M1.5 7.5C1.5 6.71787 1.79931 6.00564 2.28963 5.47161L15.1363 18.3183C14.5882 19.0366 13.7232 19.5 12.75 19.5H4.5C2.84315 19.5 1.5 18.1569 1.5 16.5V7.5Z"/>
</svg>

<svg xmlns="http://www.w3.org/2000/svg" viewBox="0 0 24 24" fill="currentColor" aria-hidden="true">
  <path d="M3.53 2.47a.75.75 0 00-1.06 1.06l18 18a.75.75 0 101.06-1.06l-18-18zM22.5 17.69c0 .471-.202.86-.504 1.124l-4.746-4.746V7.939l2.69-2.689c.944-.945 2.56-.276 2.56 1.06v11.38zM15.75 7.5v5.068L7.682 4.5h5.068a3 3 0 013 3zM1.5 7.5c0-.782.3-1.494.79-2.028l12.846 12.846A2.995 2.995 0 0112.75 19.5H4.5a3 3 0 01-3-3v-9z"/>
</svg>
